src/assets/filled/Dislike.svg

<svg width="24" height="24" viewBox="0 0 24 24"  xmlns="http://www.w3.org/2000/svg">
<path d="M15.61 5.49953V15.6595C15.61 16.0595 15.49 16.4495 15.27 16.7795L12.54 20.8395C12.11 21.4895 11.04 21.9495 10.13 21.6095C9.15002 21.2795 8.50002 20.1795 8.71002 19.1995L9.23002 15.9295C9.27002 15.6295 9.19002 15.3595 9.02002 15.1495C8.85002 14.9595 8.60002 14.8395 8.33002 14.8395H4.22002C3.43002 14.8395 2.75002 14.5195 2.35002 13.9595C1.97002 13.4195 1.90002 12.7195 2.15002 12.0095L4.61002 4.51953C4.92002 3.27953 6.27002 2.26953 7.61002 2.26953H11.51C12.18 2.26953 13.12 2.49953 13.55 2.92953L14.83 3.91953C15.32 4.29953 15.61 4.87953 15.61 5.49953Z" />
<path d="M18.7901 17.6104H19.8201C21.3701 17.6104 22.0001 17.0104 22.0001 15.5304V5.48039C22.0001 4.00039 21.3701 3.40039 19.8201 3.40039H18.7901C17.2401 3.40039 16.6101 4.00039 16.6101 5.48039V15.5404C16.6101 17.0104 17.2401 17.6104 18.7901 17.6104Z" />
</svg>

<?xml version="1.0" encoding="UTF-8"?>
<svg width="24" height="24" viewBox="0 0 24 24" xmlns="http://www.w3.org/2000/svg">
 <path d="m15.61 5.4995v10.16c0 0.4-0.12 0.79-0.34 1.12l-2.73 4.06c-0.43 0.65-1.5 1.11-2.41 0.77-0.97998-0.33-1.63-1.43-1.42-2.41l0.52-3.27c0.04-0.3-0.04-0.57-0.21-0.78-0.17-0.19-0.42-0.31-0.69-0.31h-4.11c-0.79 0-1.47-0.32-1.87-0.88-0.38-0.54-0.45-1.24-0.2-1.95l2.46-7.49c0.31-1.24 1.66-2.25 3-2.25h3.9c0.67 0 1.61 0.23 2.04 0.66l1.28 0.99c0.49 0.38 0.78 0.96 0.78 1.58z"/>
 <path d="m18.79 17.61h1.03c1.55 0 2.18-0.6 2.18-2.08v-10.05c0-1.48-0.63-2.08-2.18-2.08h-1.03c-1.55 0-2.18 0.6-2.18 2.08v10.06c0 1.47 0.63 2.07 2.18 2.07z"/>
</svg>
